src/components/Icon/assets/sorting.svg

<svg width="24" height="24" viewBox="0 0 24 24" fill="none" xmlns="http://www.w3.org/2000/svg">
<path fill-rule="evenodd" clip-rule="evenodd" d="M21.016 6.00009H3.016V4.00009H21.016V6.00009ZM19.0147 17.7924L21.5497 15.2574L22.9637 16.6714L19.0747 20.5604C18.7817 20.8534 18.3987 20.9994 18.0137 20.9994C17.6297 20.9994 17.2457 20.8534 16.9537 20.5604L13.0647 16.6714L14.4787 15.2574L17.0147 17.7944L17.0187 9.99939L19.0187 10.0004L19.0147 17.7924ZM3 13.0001H14V11.0001H3V13.0001ZM10.016 20.0001H3.01599V18.0001H10.016V20.0001Z" fill="#65676A"/>
</svg>

<svg xmlns="http://www.w3.org/2000/svg" width="24" height="24" viewBox="0 0 24 24">
    <path fill="#65676A" fill-rule="evenodd" d="M17.019 10h2l-.004 7.792 2.535-2.535 1.414 1.414-3.89 3.89c-.292.292-.675.438-1.06.438-.384 0-.768-.146-1.06-.439l-3.89-3.889 1.415-1.414 2.536 2.537.004-7.795zm-7.003 8v2h-7v-2h7zM14 11v2H3v-2h11zm7.016-7v2h-18V4h18z"/>
</svg>
